X:1
T:Tiddle Took Tod Fish
M:4/4
L:1/8
R:reel
N:David (Dave) P. Gilpin, Connellsville, P.A. 1943 (in his 60s)
N:Dave lost his ring finger in an accident and had to relearn
N:his tunes using the first 2 fingers of his left hand.
N:Samuel P. Bayard (collector of this tune) stated that Daves
N:playing was some of the best hed collected and the loss of fingers
N:was not at all a handicap.
B:Samuel P. Bayard \`i Hill Country Tunes (1944)
Z:Shawn Craver (www.shawncraver.com)
K:D
(3ABc)|d2[Af]e c2ec|BcdB AFDF|G2BG F2AF|EDEF GABc|
d2fe c2ec|BcdB AFDF|B2BG F2AF|EGFE D2(A2||
|:A)cef gf gz||Ace^g ag az|Acef g2gf|1 faec d2B2:|2 faec d2||
